X: 42
T: GREENWICH PARK
T: (COME, SWEET MAID)
B: FIFTY OLD ENGLISH FOLK DANCE AIRS", Edgar H. Hunt ed., Schott & Co. Ltd. pub., London 1939
Z: 2004-2014 John Chambers <jc:trillian.mit.edu>
M: 2/2
L: 1/4
K: F
|:\
F2 c2 | A3 d | (cA) GF | (GE) DC |\
F2 c2 | A3 d | c(f d)g | e4 :|
|:\
e2 g2 | c3 e | (fc) (cA) | d3 c |\
(dB) BG | (EG) Cc | (BA) GF | F4 :|

%%sep 1 1 500
%%sep 1 1 500
